Obsidian-SemiLight/actions/16s/debug-step-out.svg

<svg viewBox="0 0 16 16" xmlns="http://www.w3.org/2000/svg"><path d="m2 2v12h12v-9h-1v8h-10v-8h7v-3h-7zm5 4c-1.066 0-1.5136719.3519062-1.5136719 1.2539062 0 0-.02425.5870938-.03125.7460938-.046.369-.175125.6777344-.578125.6777344h-.3046875v.6445312h.3046875c.589 0 .609375.6441719.609375 1.2011724-.005.173999.0135782.369515.0175781.478515.0830001.712.5380938 1 1.4960938 1v-.59375c-.45 0-.6059219-.11625-.6699219-.40625-.034-.116-.0367812-.514078-.0507812-.705078 0-.415-.1236563-1.0350156-.7226563-1.2910156.473-.203.6442657-.628.6972656-1 .0240001-.104.0174376-.2236875.0234376-.3046875 0-.866.0097031-1.1035157.7207031-1.1035157zm2 0 .0019531.5976562c.711.0000001.7207031.2375157.7207031 1.1035157.0060002.081-.0005625.2006875.0234376.3046875.0529998.372.224266.797.6972652 1-.5989992.256-.7226559.8760156-.7226559 1.2910156-.014.191-.0167812.589078-.0507812.705078-.064.29-.2199219.40625-.6699219.40625v.59375c.958 0 1.413094-.288 1.496094-1 .004-.109.022578-.304516.017578-.478515 0-.557001.020375-1.2011724.609375-1.2011724h.304687v-.6445312h-.304687c-.403 0-.532125-.3087344-.578125-.6777344-.007-.159-.03125-.7460938-.03125-.7460938 0-.902-.447672-1.2539062-1.513672-1.2539062z" fill="#4d4d4d"/><path d="m11 5 3-1.5-3-1.5z" fill="#f67400"/></svg>

<svg xmlns="http://www.w3.org/2000/svg" viewBox="0 0 16 16">
  <defs id="defs3051">
    <style type="text/css" id="current-color-scheme">
      .ColorScheme-Text {
        color:#4d4d4d;
      }
      .ColorScheme-NeutralText {
        color:#f67400;
      }
      </style>
  </defs>
 <path style="fill:currentColor;fill-opacity:1;stroke:none" 
     d="M 2 2 L 2 14 L 14 14 L 14 5 L 13 5 L 13 13 L 3 13 L 3 5 L 10 5 L 10 2 L 3 2 L 2 2 z M 7 6 C 5.934 6 5.4863281 6.3519062 5.4863281 7.2539062 C 5.4863281 7.2539062 5.4620781 7.841 5.4550781 8 C 5.4090781 8.369 5.2799531 8.6777344 4.8769531 8.6777344 L 4.5722656 8.6777344 L 4.5722656 9.3222656 L 4.8769531 9.3222656 C 5.4659531 9.3222656 5.4863281 9.9664375 5.4863281 10.523438 C 5.4813281 10.697437 5.4999063 10.892953 5.5039062 11.001953 C 5.5869063 11.713953 6.042 12.001953 7 12.001953 L 7 11.408203 C 6.55 11.408203 6.3940781 11.291953 6.3300781 11.001953 C 6.2960781 10.885953 6.2932969 10.487875 6.2792969 10.296875 C 6.2792969 9.881875 6.1556406 9.2618594 5.5566406 9.0058594 C 6.0296406 8.8028594 6.2009063 8.3778594 6.2539062 8.0058594 C 6.2779063 7.9018594 6.2713438 7.7821719 6.2773438 7.7011719 C 6.2773438 6.8351719 6.2870469 6.5976562 6.9980469 6.5976562 L 7 6 z M 9 6 L 9.0019531 6.5976562 C 9.7129531 6.5976563 9.7226562 6.8351719 9.7226562 7.7011719 C 9.7286564 7.7821719 9.7220937 7.9018594 9.7460938 8.0058594 C 9.7990936 8.3778594 9.9703598 8.8028594 10.443359 9.0058594 C 9.8443598 9.2618594 9.7207031 9.881875 9.7207031 10.296875 C 9.7067031 10.487875 9.7039219 10.885953 9.6699219 11.001953 C 9.6059219 11.291953 9.45 11.408203 9 11.408203 L 9 12.001953 C 9.958 12.001953 10.413094 11.713953 10.496094 11.001953 C 10.500094 10.892953 10.518672 10.697437 10.513672 10.523438 C 10.513672 9.966437 10.534047 9.3222656 11.123047 9.3222656 L 11.427734 9.3222656 L 11.427734 8.6777344 L 11.123047 8.6777344 C 10.720047 8.6777344 10.590922 8.369 10.544922 8 C 10.537922 7.841 10.513672 7.2539062 10.513672 7.2539062 C 10.513672 6.3519062 10.066 6 9 6 z "
     class="ColorScheme-Text"
     />
  <path
       style="fill:currentColor;fill-opacity:1;stroke:none" 
     class="ColorScheme-NeutralText"
    d="M 11,5 14,3.5 11,2 Z" />
</svg>
